X:22
T:Light Company’s Quick March,The. Car.22
M:6/8
L:1/8
Q:3/8=120
S:CarlisleMS,Anon.c1812.AGG’s transcription
R:.Quickstep
O:England
A:Carlisle
Z:vmp.Chris Partington
K:A
E|A2A A2c|B2G F2G|A2A c2A|B3 B2c|!
A2A A2E|G2A B2c|E2B G2E|A3 “_sic”A3||!
e2|a2e agb|a2f e2c|A2A c2e|f2B B2g|!
a2e agb|a2f e2c|E2 E EFG|A3 A2e|!
a2e agb|a2f e2c|A2A c2e|f2B B2d|!
c2e e2a|d2f f2b|g2e efg|a3 a2|]
W:This has a bass part.

